X: 34235
T: Reel Trudeau
R: reel
M: 4/4
K: Gmajor
|:dc|BGBd cBAc|BGDC B,CA,B,|G,B,DF GBAG|FDFA d2dc|
BGBd cBAc|BGDC B,CA,B,|G,B,DF GBAG|FDEFG2:|
K:Dmajor
|:FG|AFDF ABde|fdAG FAdf|ecAF EAce|dcdB A2FG|
AFDF ABde|fdAG FAdf|ecAF EAce|dfec d2:|

